X: 136
T: Wolf Song
C: Teton Sioux band 1911-1914
N: Derived from sioux133a.krn
O: South Dakota, U.S.A.
N: Teton Sioux Music by Frances Densmore, 1918
Z: transcribed to **kern format by Craig Sapp
L: 1/8
M: 2/4
Q: 1/4=58
K: C clef=bass
%%linebreak <none>
A, A, [I:setbarnb 1]| 
E> DC2 | 
E> DC2 | 
C C C A, | 
C> CA,2 | 
G, G, G, E, ||  
[M:3/4]E,4(3C C A, ||  
[M:2/4]C> CA,2 | 
G, G, G, E, | 
E,> D, (3C, E, D, | 
C,2D, C, ||  
[M:3/4]A,,2A,,3A,, ||  
[M:2/4]A,,4- | 
A,,2A,3/ A,/ ||  
[M:3/4](3A, E D (3C E DC2 ||  
[M:2/4]E< C C/ A,3/ | 
C> CA,2 | 
G, G, G, E, ||  
[M:3/4]E, E,-E,2(3C C A, ||  
[M:2/4]C> CA,2 | 
G, G, G, E, | 
E,> D, (3C, E, D, | 
C,2D, C, ||  
[M:3/4]A,,> A,,A,,3A,, | 
A,,6 |]  



